X: 2396
T: Bald Goose
R: reel
M: 4/4
K: Adorian
EG|A2 AG A2 GA|cB cd e2 dc|B2 BA B3 B|BA(3GAB AG(3EFG|A2 AG A2 GA|
cB cd e2 dc|1 Bedc BAGB|A2 AG A2:|2 BABd edBG|A2 AG A2 (3GAB||
A3G ge2d|B2AG A2(3GAB|A3G ge2g|(a4 a2)g/e/d/B/|A2 AB AGEB|
cB cd e2 dc|1 Bedc BAGB|A2 AG A2 (3GAB:|2 BABd edBG|A2 AG A2(3EFG||

